!!!COM: Mozart, Wolfgang Amadeus
!!!OPR: Quartet in B-flat Major
!!!OTL:
!!!OMV: 4
!!!SCT: K 458
!!!SCA: Chronologisch-thematisches Verzeichnis sämtlicher Tonwerke Wolfgang Amade Mozarts (L. von Köchel; 1862, 2/1905, 3/1937, 1947)
!!!YOR: Breitkopf & Härtel Edition
!!!EED: Frances Bennion
!!!ENC: Frances Bennion
!!!CDT: 1756/1/27/-1791/12/5/
!!!OCY: Österreich
!!!YEC: Copyright (c) 1994, 2000 Center for Computer Assisted Research in the Humanities
!!!YEM: Rights to all derivative editions reserved.
!!!YEM: Refer to licensing agreement for further details.
!!!YEN: United States of America
**kern	**kern	**kern	**kern
*k[b-e-]	*k[b-e-]	*k[b-e-]	*k[b-e-]
*B-:	*B-:	*B-:	*B-:
*clefG	*clefG	*clefF	*clefC
*M2/4	*M2/4	*M2/4	*M2/4
=1	=1	=1	=1
4b-	2r	2r	2r
4cc	.	.	.
=2	=2	=2	=2
8a	2r	2r	2r
16g	.	.	.
16f	.	.	.
8b-	.	.	.
8b-	.	.	.
=3	=3	=3	=3
8cc	8f	8A	2r
8cc	8f	8A	.
8dd	8f	8B-	.
8dd	8f	8B-	.
=4	=4	=4	=4
8ff	4f	8d	2r
8ee-	.	8c	.
8cc	4r	8A	.
8r	.	8r	.
=5	=5	=5	=5
4b-	2r	2r	2r
4cc	.	.	.
=6	=6	=6	=6
8a	2r	2r	2r
16g	.	.	.
16f	.	.	.
8b-	.	.	.
8b-	.	.	.
=7	=7	=7	=7
8cc	8g	8E-	2r
8cc	8g	8E-	.
8f	8A	8F	.
8f	8A	8F	.
=8	=8	=8	=8
4d	4B-	4B-	2r
4r	4r	4r	.
=9	=9	=9	=9
4bb-	4b-	2r	2r
4ccc	4cc	.	.
=10	=10	=10	=10
8aa	8a	2r	2r
16gg	16g	.	.
16ff	16f	.	.
8bb-	8b-	.	.
8bb-	8b-	.	.
=11	=11	=11	=11
8ccc	8cc	8f	8A
8ccc	8cc	8f	8A
8ddd	8dd	8f	8B-
8ddd	8dd	8f	8B-
=12	=12	=12	=12
8fff	8ff	4f	8d
8eee-	8ee-	.	8c
8ccc	8cc	4r	8A
8r	8r	.	8r
=13	=13	=13	=13
4bb-	4b-	2r	2r
4ccc	4cc	.	.
=14	=14	=14	=14
8aa	8a	2r	2r
16gg	16g	.	.
16ff	16f	.	.
8bb-	8b-	.	.
8bb-	8b-	.	.
=15	=15	=15	=15
8ccc	8cc	8g	8E-
8ccc	8cc	8g	8E-
8ff	8f	8A	8F
8ff	8f	8A	8F
=16	=16	=16	=16
4dd	4d	4B-	4BB-
4r	4r	8r	8r
.	.	8b-	8B-
=17	=17	=17	=17
2r	2r	8cc	8c
.	.	8cc	8c
.	.	8f	8F
.	.	8f	8F
=18	=18	=18	=18
8ff	8f	4d	4D
8dd	8d	.	.
8b-	8B-	8r	8r
8r	8r	8b-	8B-
=19	=19	=19	=19
2r	2r	8cc	8c
.	.	8cc	8c
.	.	8f	8F
.	.	8f	8F
=20	=20	=20	=20
8ff	8f	4d	4D
8dd	8d	.	.
8bb-	8b-	8r	8r
8r	8r	8b-	8B-
=21	=21	=21	=21
2r	2r	8cc	8c
.	.	8cc	8c
.	.	8f	8F
.	.	8f	8F
=22	=22	=22	=22
8.ff	8.f	4.d	4.D
32gg	32g	.	.
32aa	32a	.	.
8bb-	8b-	.	.
8aa	8a	8f	8D
=23	=23	=23	=23
8gg	8g	8e-	8E-
8ff	8f	8d	8F
8ee-	8e-	8c	8G
8dd	8d	8B-	8E
=24	=24	=24	=24
8ff	8f	8d	4F
8dd	8d	8B-	.
8cc	8c	8A	4r
8bb-	8b-	8r	.
=25	=25	=25	=25
8ccc	8cc	2r	2r
8ccc	8cc	.	.
8ff	8f	.	.
8ff	8f	.	.
=26	=26	=26	=26
4dd	4d	8f	8F
.	.	8d	8D
8r	8r	8B-	8BB-
8bb-	8b-	8r	8r
=27	=27	=27	=27
8ccc	8cc	2r	2r
8ccc	8cc	.	.
8ff	8f	.	.
8ff	8f	.	.
=28	=28	=28	=28
4dd	4d	8f	8F
.	.	8d	8D
8r	8r	8b-	8B-
8bb-	8b-	8r	8r
=29	=29	=29	=29
8ccc	8cc	2r	2r
8ccc	8cc	.	.
8ff	8f	.	.
8ff	8f	.	.
=30	=30	=30	=30
4.dd	4.d	[2c	4.F#
8ee-	8e-	.	8G
=31	=31	=31	=31
8dd	8d	2c]	8F#
8ee-	8e-	.	8G
8dd	8d	.	8F#
8ff#	8f#	.	8A
=32	=32	=32	=32
8.gg	8.g	4B-	4G
16aa	16a	.	.
8bb-	8b-	8r	8r
8dd-	8d-	8A-	8F
=33	=33	=33	=33
8cc	8c	8G	8E
8dd-	8d-	8A-	8F
8cc	8c	8G	8E
8ee	8e	8B-	8G
=34	=34	=34	=34
8.ff	8.f	4A-	4F
16gg	16g	.	.
8aa-	8a-	4r	4r
8cc	8r	.	.
=35	=35	=35	=35
8ff	2r	2r	2r
8ee-	.	.	.
8dd-	.	.	.
8cc	.	.	.
=36	=36	=36	=36
8cc	8f	8d-	2r
8b	8f	8d-	.
8r	8f	8d-	.
8b	8f	8d-	.
=37	=37	=37	=37
8ff	8f	8d-	2r
8gg	8f	8d-	.
8aa-	8f	8d-	.
8b	8f	8d-	.
=38	=38	=38	=38
8dd	8e	8c	2r
8cc	8e	8c	.
8r	8e	8c	.
8cc	8e	8c	.
=39	=39	=39	=39
8dd	8e	8c	2r
8ee	8e	8c	.
8ff	8e	8c	.
8gg	8e	8c	.
=40	=40	=40	=40
8bb-	8d	8B	2r
8aa-	8d	8B	.
8r	8d	8B	.
8aa-	8d	8B	.
=41	=41	=41	=41
8gg	8d	8B	2r
8aa-	8d	8B	.
8gg	8d	8B	.
8ff	8d	8B	.
=42	=42	=42	=42
8ee	4c	4c	2r
8gg	.	.	.
8gg	8r	8r	.
8ff	8b	8d-	.
=43	=43	=43	=43
8ee	4cc	4c	2r
8gg	.	.	.
8gg	8r	8r	.
8ff	8b	8d-	.
=44	=44	=44	=44
8ee	4cc	4c	4.r
8gg	.	.	.
8gg	8r	8r	.
8bb	8ff 8dd	8g	8G
=45	=45	=45	=45
8ccc	8ee 8cc	8g	8c
8bb	8ff 8dd	8g	8G
8ccc	8ee 8cc	8g	8c
8bb	8ff 8dd	8g	8G
=46	=46	=46	=46
4ccc	4ee 4cc	4g	4c
8r	4r	4r	4r
8b	.	.	.
=47	=47	=47	=47
8cc	2r	2r	2r
8cc#	.	.	.
8dd	.	.	.
8b-	.	.	.
=48	=48	=48	=48
4a	4.a	[2c	4.F
4r	.	.	.
.	8cc	.	8A
=49	=49	=49	=49
2r	8g	2c]	8E
.	8g	.	8E
.	8g	.	8E
.	8a	.	8F#
=50	=50	=50	=50
8r	8cc	4c	8A
16cc	8b-	.	8G
16dd	.	.	.
8ee	8b-	4r	8G
16ee	8r	.	8r
16ff	.	.	.
=51	=51	=51	=51
8gg	2r	2r	2r
16ee	.	.	.
16ff	.	.	.
8gg	.	.	.
16gg	.	.	.
16aa	.	.	.
=52	=52	=52	=52
4bb-	4.b-	[2c	4.G
4r	.	.	.
.	8dd	.	8B-
=53	=53	=53	=53
2r	8a	2c]	8F
.	8a	.	8F
.	8a	.	8F
.	8b-	.	8G
=54	=54	=54	=54
8r	8dd	8e	8B-
16ff	8cc	8f	8A
16gg	.	.	.
8aa	8cc	8f	8A
16aa	8r	8r	8r
16bb-	.	.	.
=55	=55	=55	=55
8ccc	2r	2r	2r
16aa	.	.	.
16bb-	.	.	.
8ccc	.	.	.
16ccc	.	.	.
16ddd	.	.	.
=56	=56	=56	=56
4.eee-	4.a	4.f#	2r
8ff#	8ee-	8cc	.
=57	=57	=57	=57
4gg	8dd	8b-	4r
.	8dd	8b-	.
4aa	8cc	8a	4D
.	8cc	8a	.
=58	=58	=58	=58
8ccc	8a	8f#	4GG
4bb-	8b-	8g	.
.	8b-	8g	4r
8ee	8dd-	8b-	.
=59	=59	=59	=59
4ff	8cc	8a	4r
.	8cc	8a	.
4gg	8b-	8g	4C
.	8b-	8g	.
=60	=60	=60	=60
8bb-	8g	8e	4FF
8aa	8a	8f	.
4ccc	8r	8r	4r
.	8a	8f	.
=61	=61	=61	=61
4bb-	8r	8r	2r
.	8b-	8g	.
[4aa	8r	8r	.
.	8cc	8a	.
=62	=62	=62	=62
8aa]	2dd	2b-	4r
8gg	.	.	.
8aa	.	.	4B-
[8bb-	.	.	.
=63	=63	=63	=63
8bb-]	4cc	4a	4c
4ff	.	.	.
.	4b-	4g	4C
8gg	.	.	.
=64	=64	=64	=64
8gg#	8g#	8e	4F
8aa	8a	8f	.
8r	8r	4A	4FF
[8ccc	[8cc	.	.
=65	=65	=65	=65
8ccc]	8cc]	4B-	4GG
4bb-	4b-	.	.
.	.	4c	4AA
[8aa	[8a	.	.
=66	=66	=66	=66
8aa]	8a]	4d	4BB-
8gg	8g	.	.
8r	8r	4B-	4GG
[8ddd	[8dd	.	.
=67	=67	=67	=67
8ddd]	8dd]	4c	4AA
4ccc	4cc	.	.
.	.	4d	4BB-
[8bb-	[8b-	.	.
=68	=68	=68	=68
8bb-]	8b-]	4e-	4C
8aa	8a	.	.
8r	8r	4c	4AA
[8eee-	[8ee-	.	.
=69	=69	=69	=69
8eee-]	8ee-]	4d	4BB-
4ddd	4dd	.	.
.	.	4e-	4C
8ccc	8cc	.	.
=70	=70	=70	=70
2bb-	2b-	8f	8D
.	.	4g	8D
.	.	.	8D
.	.	[8a-	8D
=71	=71	=71	=71
2bb	2b	8a-]	8D
.	.	4g	8D
.	.	.	8D
.	.	8f	8D
=72	=72	=72	=72
8ccc	4.cc	4g	8E
8gg	.	.	8E
[4bb-	.	4r	8E
.	8dd-	.	8E
=73	=73	=73	=73
4bb-]	8cc	4.cc	8F
.	8ee	.	8F
[4aa	4ff	.	8F
.	.	8cc#	8F
=74	=74	=74	=74
16aa]	4.r	8dd	8BB-
16gg	.	.	.
16ff#	.	8d	8BB-
16gg	.	.	.
16ff#	.	8d	8BB-
16gg	.	.	.
16bb-	16dd	8d	8BB-
16gg	16b-	.	.
=75	=75	=75	=75
4ff	4a	8c	8C
.	.	8c	8C
4ee	4g	8B-	8C#
.	.	8B-	8C#
=76	=76	=76	=76
8ff	4f	4A	4D
16aa	.	.	.
16gg	.	.	.
16ff	4r	4r	4r
16ee	.	.	.
16dd	.	.	.
16cc	.	.	.
=77	=77	=77	=77
2b	8r	8r	8r
.	8f	8d	8G
.	8f	8d	8G
.	8f	8d	8G
=78	=78	=78	=78
8r	4e	4c	4C
16gg	.	.	.
16ff	.	.	.
16ee	8r	8r	8r
16dd	.	.	.
16cc	8g	8e	8C
16b-	.	.	.
=79	=79	=79	=79
8a	4f	4f	4D
16ff	.	.	.
16ee	.	.	.
16dd	8r	8r	8r
16cc	.	.	.
16b-	8f	8c	8AA
16a	.	.	.
=80	=80	=80	=80
8g	8d	8d	8BB-
8dd	8b-	8G	8BB-
8cc	8a	8A	8C
8e	8g	8B-	8C
=81	=81	=81	=81
4f	4f	4A	4FF
8r	4r	4r	4r
8c	.	.	.
=82	=82	=82	=82
4.a	2f	[2c	4F
.	.	.	4C
8f	.	.	.
=83	=83	=83	=83
4.b-	2e	2c]	4G
.	.	.	4C
8g	.	.	.
=84	=84	=84	=84
8cc	8f	8c	8A
8ff	8a	8A	8F
8dd	8f	8d	8B-
8gg	8b-	8B-	8G
=85	=85	=85	=85
4ff	4a	4.c	4c
8ee	4g	.	4B-
8cc	.	8e	.
=86	=86	=86	=86
12ff	[2c	2f	2A
12aa	.	.	.
12gg	.	.	.
12ff	.	.	.
12ee	.	.	.
12dd	.	.	.
=87	=87	=87	=87
12cc	2c_	2g	2E
12b	.	.	.
12cc	.	.	.
12cc#	.	.	.
12dd	.	.	.
12b-	.	.	.
=88	=88	=88	=88
12a	8.c]	4..f	4F
12cc	.	.	.
12f	16A	.	.
12dd	12B-	.	4BB-
12b-	12d	.	.
12g	12B-	16d	.
=89	=89	=89	=89
4f	4A	4c	4C
8e	8G	4r	4r
8c	8r	.	.
=90	=90	=90	=90
8a	2f	[2c	4F
4a	.	.	.
.	.	.	4C
8f	.	.	.
=91	=91	=91	=91
8b-	2e	2c]	4G
4b-	.	.	.
.	.	.	4C
8g	.	.	.
=92	=92	=92	=92
8cc	8f	8c	8A
8ff	8a	8A	8F
8dd	8f	8d	8B-
8gg	8b-	8B-	8G
=93	=93	=93	=93
4ff	4a	4.c	4c
8ee	4g	.	4B-
8cc	.	8e	.
=94	=94	=94	=94
12ff	2c	[2f	2A
12aa	.	.	.
12gg	.	.	.
12ff	.	.	.
12ee	.	.	.
12ff	.	.	.
=95	=95	=95	=95
12dd	4B-	2f]	4B-
12cc#	.	.	.
12dd	.	.	.
12b-	[4f	.	4d
12a	.	.	.
12b-	.	.	.
=96	=96	=96	=96
12a	12f]	4.c	4c
12dd	12b-	.	.
12cc	12a	.	.
12b-	12g	.	4C
12a	12f	.	.
.	.	8B-	.
12g	12e	.	.
=97	=97	=97	=97
4f	4f	8A	4F
.	.	8C	.
4r	8r	8F	8r
.	8f	8A	8F
=98	=98	=98	=98
4.r	8e	4B-	8G
.	8g	.	8G
.	8b-	8r	8C
8cc	8g	8E	8C
=99	=99	=99	=99
8ff	8a	8F	4AA
8ee	8cc	8C	.
8dd	8r	8F	8r
8cc	8f	8A	8F
=100	=100	=100	=100
4.cc	8e	4B-	8G
.	8g	.	8G
.	8b-	8r	8C
8cc	8g	8E	8C
=101	=101	=101	=101
8ff	8a	8F	4AA
8ee	8cc	8C	.
8dd	8r	8F	8r
8cc	8f	8A	8F
=102	=102	=102	=102
4.cc	8e	4B-	8G
.	8g	.	8G
.	8b-	8r	8C
8cc	8g	8E	8C
=103	=103	=103	=103
8cc	4cc	4F	4AA
8ff	.	.	.
8g	4b-	4d	4BB-
8dd	.	.	.
=104	=104	=104	=104
4f	4a	4c	2C
4g	4e	4B-	.
=105	=105	=105	=105
4b-	4g	4e	[4F
8a	8f	8f	8F]
8r	8ff	8F	8r
=106	=106	=106	=106
4.r	8gg	8E	4.r
.	8gg	8G	.
.	8cc	8B-	.
8ee	8cc	8G	8C
=107	=107	=107	=107
8ff	4a	8A	8F
8cc	.	8c	8E
8ff	8r	8r	8D
8aa	8ff	8F	8C
=108	=108	=108	=108
4bb-	8gg	8E	4.C
.	8gg	8G	.
8r	8cc	8B-	.
8ee	8cc	8G	8C
=109	=109	=109	=109
8ff	4a	8A	8F
8cc	.	8c	8E
8ff	8r	8r	8D
8aa	8ff	8F	8C
=110	=110	=110	=110
4bb-	8gg	8E	4.C
.	8gg	8G	.
8r	8cc	8B-	.
8ee	8cc	8G	8BB-
=111	=111	=111	=111
8ff	4cc	8F	4AA
8ccc	.	8f	.
8dd	4b-	8F	4BB-
8ddd	.	8f	.
=112	=112	=112	=112
4cc	8A	4f	8C
.	8a	.	8c
4ee	8G	4c	8BB-
.	8g	.	8B-
=113	=113	=113	=113
2ccc	16f	16c	8AA
.	16f	16c	.
.	16f	16c	8A
.	16f	16c	.
.	16f	16c	8A
.	16f	16c	.
.	16f	16c	8A
.	16f	16c	.
=114	=114	=114	=114
8bb-	16f	16d	8BB-
.	16f	16d	.
16aa	16f	16d	8B-
16gg	16f	16d	.
8ff	16g	16f	8B-
.	16g	16f	.
16ee	16g	16f	8B-
16dd	16g	16f	.
=115	=115	=115	=115
2cc	16a	16f	8C
.	16a	16f	.
.	16a	16f	8c
.	16a	16f	.
.	16a	16f	8c
.	16a	16f	.
.	16a	16f	8c
.	16a	16f	.
=116	=116	=116	=116
2b-	16g	16e	8C#
.	16g	16e	.
.	16g	16e	8c#
.	16g	16e	.
.	16g	16e	8c#
.	16g	16e	.
.	16g	16e	8c#
.	16g	16e	.
=117	=117	=117	=117
2a	16f	4f	8D
.	16e	.	.
.	16f	.	8d
.	16e	.	.
.	8f	4r	8d
.	8r	.	8d
=118	=118	=118	=118
2ddd	16a-	16f	8BB
.	16g	16e	.
.	16a-	16f	8B
.	16g	16e	.
.	8a-	8f	8B
.	8r	8r	8B
=119	=119	=119	=119
2ccc	16a	16f	8C
.	16g#	16e	.
.	16a	16f	8c
.	16g#	16e	.
.	8a	8f	8c
.	8a	8f	8c
=120	=120	=120	=120
2ee	16b-	16g	8CC
.	16a	16f#	.
.	16b-	16g	8C
.	16a	16f#	.
.	8b-	8g	8C
.	8b-	8g	8C
=121	=121	=121	=121
4ff	4a	4f	4FF
4r	4r	4r	4r
=122	=122	=122	=122
4f	4c	4A	2r
4g	4d	4B-	.
=123	=123	=123	=123
8e	4B-	4G	4C
16d	.	.	.
16c	.	.	.
8f	4A	4F	4D
8f	.	.	.
=124	=124	=124	=124
8g	8f	8d	8BB-
8g	8f	8d	8BB-
8a	8f	8e-	8C
8a	8f	8e-	8C
=125	=125	=125	=125
4cc	4f	4d	4D
8b-	4r	4r	4r
8r	.	.	.
=126	=126	=126	=126
4b-	4r	4r	4r
4dd	4g	4e	4BB-
=127	=127	=127	=127
8cc	4a	4f	4AA
16dd	.	.	.
16ee	.	.	.
8ff	8r	8r	8r
8f	8f	8A	8D
=128	=128	=128	=128
8g	8f	8d	8BB-
8g	8f	8d	8BB-
8cc	8e	8B-	8C
8cc	8e	8B-	8C
=129	=129	=129	=129
4f	4f	4A	4F
8r	8r	4r	4r
8aa	8ff	.	.
=130	=130	=130	=130
8ccc	8aa	2r	2r
8aa	8ff	.	.
8ccc	8aa	.	.
8aa	8ff	.	.
=131	=131	=131	=131
4ccc	4aa	4.r	4.r
8r	8r	.	.
8g	8e 8c	8B-	8C
=132	=132	=132	=132
8f	8f 8c	8A	8F
8g	8e 8c	8B-	8C
8f	8f 8c	8A	8F
8g	8e 8c	8B-	8C
=133	=133	=133	=133
4f	4f 4c	4A	4F
4r	4r	4r	4r
=134	=134	=134	=134
2r	2r	4f	4F
.	.	4g	4G
=135	=135	=135	=135
4.r	4.r	8e	8E
.	.	16d	16D
.	.	16c	16C
.	.	8f	8F
8aa-	8ff	8r	8r
=136	=136	=136	=136
8ccc	8aa-	2r	2r
8aa-	8ff	.	.
8ccc	8aa-	.	.
8aa-	8ff	.	.
=137	=137	=137	=137
4ccc	4aa-	4.r	4.r
8r	8r	.	.
8cc	8f	8c	8A-
=138	=138	=138	=138
8b	8f	8d	8G
8cc	8f	8c	8A-
8b	8f	8d	8G
8cc	8f	8c	8A-
=139	=139	=139	=139
4b	4f	4d	4G
4r	4r	4r	4r
=140	=140	=140	=140
2r	4c	4r	2r
.	4d	4F	.
=141	=141	=141	=141
2r	8B	4G	2r
.	16A	.	.
.	16G	.	.
.	8c	8E-	.
.	8c	16D	.
.	.	16C	.
=142	=142	=142	=142
2r	8d	4F	2r
.	4f	.	.
.	.	4G	.
.	8B	.	.
=143	=143	=143	=143
4cc	4c	4C	2r
4dd	4r	4r	.
=144	=144	=144	=144
8b	4d	8G	4F
16a	.	8B	.
16g	.	.	.
8cc	8e-	8c	8E-
8cc	8r	8r	8r
=145	=145	=145	=145
4ee-	2r	2r	2r
4ff	.	.	.
=146	=146	=146	=146
8dd	4f	8B-	4A-
16cc	.	8d	.
16b-	.	.	.
8ee-	8g	8e-	8G
8ee-	8r	8r	8r
=147	=147	=147	=147
4gg	2r	2r	2r
4aa	.	.	.
=148	=148	=148	=148
8ff#	4a	8d	4c
16ee	.	8f#	.
16dd	.	.	.
8gg	8b-	8g	8B-
8gg	8r	8r	8r
=149	=149	=149	=149
4bb-	4gg	2r	2r
4ccc	4aa	.	.
=150	=150	=150	=150
8aa	8ff#	2r	2r
16gg	16ee	.	.
16ff#	16dd	.	.
8bb-	8gg	.	.
8bb-	8gg	.	.
=151	=151	=151	=151
8ddd	4bb-	4g	2r
4ddd	.	.	.
.	4ccc	4a	.
[8ddd	.	.	.
=152	=152	=152	=152
8ddd]	8aa	8f#	2r
4ddd	16gg	16e	.
.	16ff#	16d	.
.	8bb-	8g	.
[8ddd	8bb-	8g	.
=153	=153	=153	=153
8ddd]	8r	4B-	4G
4ee-	8dd	.	.
.	8cc	4c	4A
[8ccc	8e-	.	.
=154	=154	=154	=154
8ccc]	8d	8A	8F#
4dd	8cc	16G	16E
.	.	16F#	16D
.	8b-	8B-	8G
[8bb-	8d	8B-	8G
=155	=155	=155	=155
8bb-]	8c	4G	4E
4cc	8b-	.	.
.	8a-	4A-	4F
[8aa-	8c	.	.
=156	=156	=156	=156
8aa-]	8B-	8F	8D
4b-	8a-	16E-	16C
.	.	16D	16BB-
.	8g	8G	8E-
[8gg	8B-	8G	8E-
=157	=157	=157	=157
8gg]	8A-	4e-	4C
4a-	8g	.	.
.	8f	4f	4D
[8ff	8A-	.	.
=158	=158	=158	=158
8ff]	8G	8d	8BB
4g	8f	16c	16AA
.	.	16B	16GG
.	8e-	8e-	8C
[8ee-	8g	8e-	8C
=159	=159	=159	=159
8ee-]	8f	8c	8AA
4f	8e-	16B-	16GG
.	.	16A	16FF
.	8d	8d	8BB-
[8dd	8f	8d	8BB-
=160	=160	=160	=160
8dd]	8e	8B-	8GG
4e	8d	16A	16FF
.	.	16G	16EE
.	8c	8c	8AA
[8cc	8e	8c	8AA
=161	=161	=161	=161
8cc]	8f#	8A	8DD
8d	8r	8r	8r
8aa	8a	8d	8F#
8cc	8r	8r	8r
=162	=162	=162	=162
8b-	8g	8d	8G
8g	8r	8r	8r
8bb-	8g	8G	8E-
8cc#	8r	8r	8r
=163	=163	=163	=163
4dd	8f#	8A	8D
.	8d	8F#	8D
4aa	8ff#	8d	8D
.	8cc	8f#	8D
=164	=164	=164	=164
4bb-	8b-	8g	8D
.	8g	8B-	8D
4ccc#	8bb-	8G	8D
.	8gg	8B-	8D
=165	=165	=165	=165
4ddd	4ff#	4A	8D
.	.	.	8D
4r	4r	4r	8d
.	.	.	8d
=166	=166	=166	=166
2r	2r	2r	8d
.	.	.	8d
.	.	.	8d
.	.	.	8d
=167	=167	=167	=167
2r	2r	8r	[2d
.	.	8e-	.
.	.	8e-	.
.	.	8e-	.
=168	=168	=168	=168
2r	2r	8e-	2d_
.	.	8e-	.
.	.	8e-	.
.	.	8e-	.
=169	=169	=169	=169
2r	2gg	[2e-	8d]
.	.	.	8d
.	.	.	8d
.	.	.	8d
=170	=170	=170	=170
2r	2aa-	2e-]	8c
.	.	.	8c
.	.	.	8c
.	.	.	8c
=171	=171	=171	=171
2r	8ff	8d	8c
.	16ee-	8d	8c
.	16dd	.	.
.	8gg	8d	8B-
.	8gg	8d	8B-
=172	=172	=172	=172
4gg	4ee-	8c	8B-
.	.	8c	8B-
4aa-	4ff	8c	8A-
.	.	8c	8A-
=173	=173	=173	=173
8ff	8dd	8B-	8A-
16ee-	16cc	8B-	8A-
16dd	16b-	.	.
8gg	8ee-	8B-	8G
8gg	8ee-	8B-	8G
=174	=174	=174	=174
4ee-	4cc	8A-	8G
.	.	8A-	8G
4ff	4dd	8A-	8F
.	.	8A-	8F
=175	=175	=175	=175
8dd	8b	8G	8F
16cc	16a	8G	8F
16b	16g	.	.
8ee-	8cc	8G	8E-
8r	8r	8r	8r
=176	=176	=176	=176
8r	8r	2r	2r
8ee-	8cc	.	.
8gg	8ee-	.	.
8ee-	8cc	.	.
=177	=177	=177	=177
8cc	8a	8F	8E-
16b-	16g	8F	8E-
16a	16f	.	.
8dd	8b-	8F	8D
8r	8r	8r	8r
=178	=178	=178	=178
2r	2r	8r	8r
.	.	8d	8B-
.	.	8f	8d
.	.	8d	8B-
=179	=179	=179	=179
4r	4r	8c	8A
.	.	16B-	16G
.	.	16A	16F
8dd	8b-	8d	8B-
16cc	16a	8r	8r
16b-	16g	.	.
=180	=180	=180	=180
8ff	8f	8c	8A
8r	8r	16B-	16G
.	.	16A	16F
8dd	8b-	8d	8B-
16cc	16a	8r	8r
16b-	16g	.	.
=181	=181	=181	=181
8ff	8f	8c	8A
8r	8r	16B-	16G
.	.	16A	16F
8dd	8b-	8d	8B-
16cc	16a	8d	8B-
16b-	16g	.	.
=182	=182	=182	=182
8ff	8f	8c	8A
8ff	8f	8d	8B-
8ff	8f	8c	8A
8ff	8f	8B-	8G
=183	=183	=183	=183
2ff	4f	4A	8F
.	.	.	8F
.	4r	4r	8F
.	.	.	8F
=184	=184	=184	=184
2gg	2b	2r	8F
.	.	.	8F
.	.	.	8F
.	.	.	8F
=185	=185	=185	=185
8ee-	4cc	4e-	8F
16dd	.	.	8F
16cc	.	.	.
8aa	8a	4f	8F
8aa	16g	.	8F
.	16f	.	.
=186	=186	=186	=186
8bb-	8ff	8d	8F
8bb-	8dd	16c	8F
.	.	16B-	.
8ee	8g	8b-	8F
8ee	8g	8b-	8F
=187	=187	=187	=187
4ff	2f	4a	8F
.	.	.	8F
4r	.	4r	8F
.	.	.	8F
=188	=188	=188	=188
2r	2g-	2B-	8FF
.	.	.	8FF
.	.	.	8FF
.	.	.	8FF
=189	=189	=189	=189
4ee-	8e-	4c	8FF
.	16d-	.	8FF
.	16c	.	.
4ff	8a	8A	8FF
.	8a	16G	8FF
.	.	16F	.
=190	=190	=190	=190
8dd-	8b-	8f	8FF
16cc	8b-	8d-	8FF
16b-	.	.	.
8bb-	8e	8G	8FF
8bb-	8e	8G	8FF
=191	=191	=191	=191
4aa	4f	8F	8FF
.	.	8e	8E
8r	8r	4f	4F
8cc	8a	.	.
=192	=192	=192	=192
8ee-	8cc	2r	2r
8cc	8a	.	.
8ee-	8cc	.	.
8cc	8a	.	.
=193	=193	=193	=193
4ee-	4cc	8r	8r
.	.	8g-	8G-
8r	8r	4f	4F
8aa	8cc	.	.
=194	=194	=194	=194
8ccc	8ee-	2r	2r
8aa	8cc	.	.
8ccc	8ee-	.	.
8aa	8cc	.	.
=195	=195	=195	=195
4ccc	4ee-	8r	8r
.	.	8g-	8B-
8r	8r	8f	8A
8ccc	8ee-	8g-	8B-
=196	=196	=196	=196
8eee-	8ccc	8f	8A
8ccc	8ee-	8b-	8G-
8eee-	8ccc	8a	8F
8ccc	8ee-	8b-	8G-
=197	=197	=197	=197
4eee-	4ccc	4a	4F
8r	4r	4r	4r
8f	.	.	.
=198	=198	=198	=198
8f#	2r	2r	2r
8g	.	.	.
8a-	.	.	.
8a	.	.	.
=199	=199	=199	=199
4b-	2r	2r	2r
4cc	.	.	.
=200	=200	=200	=200
8a	2r	2r	2r
16g	.	.	.
16f	.	.	.
8b-	.	.	.
8b-	.	.	.
=201	=201	=201	=201
8cc	8f	8A	2r
8cc	8f	8A	.
8dd	8f	8B-	.
8dd	8f	8B-	.
=202	=202	=202	=202
8ff	4f	8d	2r
8ee-	.	8c	.
8cc	4r	8A	.
8r	.	8r	.
=203	=203	=203	=203
4b-	2r	2r	2r
4cc	.	.	.
=204	=204	=204	=204
8a	2r	2r	2r
16g	.	.	.
16f	.	.	.
8b-	.	.	.
8b-	.	.	.
=205	=205	=205	=205
8cc	8g	8E-	2r
8cc	8g	8E-	.
8f	8A	8F	.
8f	8A	8F	.
=206	=206	=206	=206
4d	4B-	4B-	2r
4r	4r	4r	.
=207	=207	=207	=207
4bb-	4b-	2r	2r
4ccc	4cc	.	.
=208	=208	=208	=208
8aa	8a	2r	2r
16gg	16g	.	.
16ff	16f	.	.
8bb-	8b-	.	.
8bb-	8b-	.	.
=209	=209	=209	=209
8ccc	8cc	8f	8A
8ccc	8cc	8f	8A
8ddd	8dd	8f	8B-
8ddd	8dd	8f	8B-
=210	=210	=210	=210
8fff	8ff	4f	8d
8eee-	8ee-	.	8c
8ccc	8cc	4r	8A
8r	8r	.	8r
=211	=211	=211	=211
4bb-	4b-	2r	2r
4ccc	4cc	.	.
=212	=212	=212	=212
8aa	8a	2r	2r
16gg	16g	.	.
16ff	16f	.	.
8bb-	8b-	.	.
8bb-	8b-	.	.
=213	=213	=213	=213
8ccc	8cc	8g	8E-
8ccc	8cc	8g	8E-
8ff	8f	8A	8F
8ff	8f	8A	8F
=214	=214	=214	=214
4dd	4d	4B-	4BB-
4r	4r	8r	8r
.	.	8b-	8B-
=215	=215	=215	=215
2r	2r	8cc	8c
.	.	8cc	8c
.	.	8f	8F
.	.	8f	8F
=216	=216	=216	=216
8ff	8f	4d	4D
8dd	8d	.	.
8b-	8B-	8r	8r
8r	8r	8b-	8B-
=217	=217	=217	=217
2r	2r	8cc	8c
.	.	8cc	8c
.	.	8f	8F
.	.	8f	8F
=218	=218	=218	=218
8ff	8f	4d	4D
8dd	8d	.	.
8bb-	8b-	8r	8r
8r	8r	8b-	8B-
=219	=219	=219	=219
2r	2r	8cc	8c
.	.	8cc	8c
.	.	8f	8F
.	.	8f	8F
=220	=220	=220	=220
8.ff	8.f	4.d	4.D
32gg	32g	.	.
32aa	32a	.	.
8bb-	8b-	.	.
8aa	8a	8f	8D
=221	=221	=221	=221
8gg	8g	8e-	8E-
8ff	8f	8d	8F
8ee-	8e-	8c	8G
8dd	8d	8B-	8E
=222	=222	=222	=222
8ff	8f	8d	4F
8dd	8d	8B-	.
8cc	8c	8A	4r
8bb-	8b-	8r	.
=223	=223	=223	=223
8ccc	8cc	2r	2r
8ccc	8cc	.	.
8ff	8f	.	.
8ff	8f	.	.
=224	=224	=224	=224
4dd	4d	8f	8F
.	.	8d	8D
8r	8r	8B-	8BB-
8bb-	8b-	8r	8r
=225	=225	=225	=225
8ccc	8cc	2r	2r
8ccc	8cc	.	.
8ff	8f	.	.
8ff	8f	.	.
=226	=226	=226	=226
4dd	4d	8f	8F
.	.	8d	8D
8r	8r	8b-	8B-
8bb-	8b-	8r	8r
=227	=227	=227	=227
8ccc	8cc	2r	2r
8ccc	8cc	.	.
8ff	8f	.	.
8ff	8f	.	.
=228	=228	=228	=228
4.dd	[2g	[2f	4.B
8ee-	.	.	8c
=229	=229	=229	=229
8dd	2g_	2f]	8B
8ee-	.	.	8c
8dd	.	.	8B
8gg	.	.	8G
=230	=230	=230	=230
8gg	4g]	4e	2B-
24ff	.	.	.
24ee	.	.	.
24dd	.	.	.
8cc	4g-	[4e-	.
8dd-	.	.	.
=231	=231	=231	=231
8cc	[2f	2e-]	8A
8dd-	.	.	8B-
8cc	.	.	8A
8ff	.	.	8F
=232	=232	=232	=232
8ff	2f]	2d	2A-
24ee-	.	.	.
24dd	.	.	.
24cc	.	.	.
8b-	.	.	.
8b-	.	.	.
=233	=233	=233	=233
8b-	4e-	[2B-	4G-
4ee-	.	.	.
.	4f	.	4F
8dd-	.	.	.
=234	=234	=234	=234
8dd-	2g-	2B-_	2E-
8cc	.	.	.
8cc	.	.	.
8dd-	.	.	.
=235	=235	=235	=235
8dd-	2g	8B-]	2E
8cc	.	8c	.
8cc	.	8c	.
8b-	.	8d-	.
=236	=236	=236	=236
8a	4f	4c	4F
8cc	.	.	.
8cc	8r	8r	4r
8ee	8b-	8g-	.
=237	=237	=237	=237
8ff	4a	4f	2r
8aa	.	.	.
8aa	8r	8r	.
8ee	8b-	8g-	.
=238	=238	=238	=238
8ff	4a	4f	4.r
8ccc	.	.	.
8ccc	8r	8r	.
8ee	8b-	8g	8c
=239	=239	=239	=239
8ff	8a	8f	8F
8ee	8b-	8g	8c
8ff	8a	8f	8F
8ee	8b-	8g	8c
=240	=240	=240	=240
4.ff	4a	4f	4F
.	4r	4r	4r
8ff#	.	.	.
=241	=241	=241	=241
8gg	2r	2r	2r
8ff	.	.	.
8ee	.	.	.
8ee-	.	.	.
=242	=242	=242	=242
4dd	4.dd	[2f	4.B-
4r	.	.	.
.	8ff	.	8d
=243	=243	=243	=243
2r	8cc	2f_	8A
.	8cc	.	8A
.	8cc	.	8A
.	8dd	.	8B
=244	=244	=244	=244
8r	8ff	4f]	8d
16ff	8ee-	.	8c
16gg	.	.	.
8aa	8ee-	4r	8c
16aa	8r	.	8r
16bb-	.	.	.
=245	=245	=245	=245
8ccc	2r	2r	2r
16aa	.	.	.
16bb-	.	.	.
8ccc	.	.	.
16ccc	.	.	.
16ddd	.	.	.
=246	=246	=246	=246
4eee-	4.ee-	[2f	4.c
4r	.	.	.
.	8gg	.	8e-
=247	=247	=247	=247
2r	8dd	8f]	8B-
.	8dd	8f	8B-
.	8dd	8f	8B-
.	8ee-	8f	8c
=248	=248	=248	=248
8r	8gg	8a	8e-
16b-	8ff	8b-	8d
16cc	.	.	.
8dd	8ff	8b-	8d
16dd	8r	8r	8r
16ee-	.	.	.
=249	=249	=249	=249
8ff	2r	2r	2r
16dd	.	.	.
16ee-	.	.	.
8ff	.	.	.
16ff	.	.	.
16gg	.	.	.
=250	=250	=250	=250
4.aa-	4.d	4.B	2r
8b	8a-	8f	.
=251	=251	=251	=251
4cc	8g	8e-	4r
.	8g	8e-	.
4dd	8f	8d	4G
.	8f	8d	.
=252	=252	=252	=252
8ff	8d	8B	4C
4ee-	8e-	8c	.
.	8e-	8c	4r
8a	8g-	8e-	.
=253	=253	=253	=253
4b-	8f	8d	4r
.	8f	8d	.
4cc	8e-	8c	4F
.	8e-	8c	.
=254	=254	=254	=254
8ee-	8c	8A	4BB-
8dd	8d	8B-	.
4ff	8r	8r	4r
.	8d	8B-	.
=255	=255	=255	=255
4ee-	8r	8r	2r
.	8e-	8c	.
[4dd	8r	8r	.
.	8f	8d	.
=256	=256	=256	=256
8dd]	2g	2e-	4r
8cc	.	.	.
8dd	.	.	4E-
[8ee-	.	.	.
=257	=257	=257	=257
8ee-]	4f	4d	4F
4b-	.	.	.
.	4e-	4c	4FF
8cc	.	.	.
=258	=258	=258	=258
8cc#	8c#	8A	4BB-
8dd	8d	8B-	.
8r	8r	4D	4BB-
[8ff	[8f	.	.
=259	=259	=259	=259
8ff]	8f]	4E-	4C
4ee-	4e-	.	.
.	.	4F	4D
[8dd	[8d	.	.
=260	=260	=260	=260
8dd]	8d]	4G	4E-
8cc	8c	.	.
8r	8r	4E-	4C
[8gg	[8g	.	.
=261	=261	=261	=261
8gg]	8g]	4F	4D
4ff	4f	.	.
.	.	4G	4E-
[8ee-	[8e-	.	.
=262	=262	=262	=262
8ee-]	8e-]	4A-	4F
8dd	8d	.	.
8r	8r	4F	4D
[8aa-	[8a-	.	.
=263	=263	=263	=263
8aa-]	8a-]	4G	4E-
4gg	4g	.	.
.	.	4A-	4F
8ff	8f	.	.
=264	=264	=264	=264
2ee-	2e-	8B-	8G
.	.	4c	8G
.	.	.	8G
.	.	[8d-	8G
=265	=265	=265	=265
2ee	2e	8d-]	8G
.	.	4c	8G
.	.	.	8G
.	.	8B-	8G
=266	=266	=266	=266
8ff	4.f	4c	8A
8cc	.	.	8A
[4ee-	.	4r	8A
.	8g-	.	8A
=267	=267	=267	=267
4ee-]	8f	4.f	8B-
.	8a	.	8B-
[4dd	4b-	.	8B-
.	.	8f#	8B-
=268	=268	=268	=268
16dd]	4.r	8g	8E-
16cc	.	.	.
16b	.	8g	8E-
16cc	.	.	.
16b	.	8g	8E-
16cc	.	.	.
16ee-	16g	8g	8E-
16cc	16e-	.	.
=269	=269	=269	=269
4b-	4d	8f	8F
.	.	8f	8F
4a	4c	8e-	8F#
.	.	8e-	8F#
=270	=270	=270	=270
8b-	4B-	4d	4G
16ddd	.	.	.
16ccc	.	.	.
16bb-	4r	4r	4r
16aa	.	.	.
16gg	.	.	.
16ff	.	.	.
=271	=271	=271	=271
2ee	8r	8r	8r
.	8b-	8g	8C
.	8b-	8g	8C
.	8b-	8g	8C
=272	=272	=272	=272
8r	4a	4f	4F
16ccc	.	.	.
16bb-	.	.	.
16aa	8r	8r	8r
16gg	.	.	.
16ff	8cc	8a	8F
16ee-	.	.	.
=273	=273	=273	=273
8dd	4b-	4b-	4G
16bb-	.	.	.
16aa	.	.	.
16gg	8r	8r	8r
16ff	.	.	.
16ee-	8b-	8f	8D
16dd	.	.	.
=274	=274	=274	=274
8cc	8g	8g	8E-
8gg	8ee-	8c	8E-
8ff	8dd	8d	8F
8a	8cc	8e-	8F
=275	=275	=275	=275
4b-	4b-	4d	4BB-
8r	4r	4r	4r
8f	.	.	.
=276	=276	=276	=276
4.dd	2b-	[2f	4B-
.	.	.	4F
8b-	.	.	.
=277	=277	=277	=277
4.ee-	2a	2f_	4c
.	.	.	4F
8cc	.	.	.
=278	=278	=278	=278
8ff	8b-	8f]	8d
8bb-	8dd	8d	8B-
8gg	8b-	8g	8e-
8ccc	8ee-	8e-	8c
=279	=279	=279	=279
4bb-	4dd	4.f	4f
8aa	4cc	.	4e-
8ff	.	8a	.
=280	=280	=280	=280
12bb-	[2f	2b-	2d
12ddd	.	.	.
12ccc	.	.	.
12bb-	.	.	.
12aa	.	.	.
12gg	.	.	.
=281	=281	=281	=281
12ff	2f_	2cc	2A
12ee	.	.	.
12ff	.	.	.
12ff#	.	.	.
12gg	.	.	.
12ee-	.	.	.
=282	=282	=282	=282
12dd	8.f]	4..b-	4B-
12ff	.	.	.
12b-	16d	.	.
12gg	12e-	.	4E-
12ee-	12g	.	.
12cc	12e-	16g	.
=283	=283	=283	=283
4b-	4d	4f	4F
8a	8c	8r	4r
8f	8r	8F	.
=284	=284	=284	=284
8dd	2f	8d	4BB-
4dd	.	4d	.
.	.	.	4FF
8b-	.	8B-	.
=285	=285	=285	=285
8ee-	2A	8e-	4C
4ee-	.	4e-	.
.	.	.	4FF
8cc	.	8c	.
=286	=286	=286	=286
8ff	8B-	8f	8D
8bb-	8d	8b-	8BB-
8gg	8B-	8g	8E-
8ccc	8e-	8cc	8C
=287	=287	=287	=287
4bb-	4d	4b-	4F
8aa	4c	4a	4E-
8ff	.	.	.
=288	=288	=288	=288
12bb-	2f	[2b-	2D
12ddd	.	.	.
12ccc	.	.	.
12bb-	.	.	.
12aa	.	.	.
12bb-	.	.	.
=289	=289	=289	=289
12gg	4e-	4b-]	4E-
12ff#	.	.	.
12gg	.	.	.
12ee-	[4b-	4B-	4G
12dd	.	.	.
12ee-	.	.	.
=290	=290	=290	=290
12dd	12b-]	4.f	4F
12gg	12ee-	.	.
12ff	12dd	.	.
12ee-	12cc	.	4FF
12dd	12b-	.	.
.	.	8e-	.
12cc	12a	.	.
=291	=291	=291	=291
4b-	8b-	4d	4BB-
.	8f	.	.
8r	8b-	4r	8r
8bb-	8dd	.	8BB-
=292	=292	=292	=292
8aa	4ee-	4.r	8C
8ccc	.	.	8C
8eee-	8r	.	8FF
8ccc	8a	8F	8FF
=293	=293	=293	=293
8ddd	8b-	8B-	4DD
8fff	8f	8A	.
8r	8b-	8G	8r
8bb-	8dd	8F	8BB-
=294	=294	=294	=294
8aa	4ee-	4.F	8C
8ccc	.	.	8C
8eee-	8r	.	8FF
8ccc	8a	8F	8FF
=295	=295	=295	=295
8ddd	8b-	8B-	4DD
8fff	8f	8A	.
8r	8b-	8G	8r
8bb-	8dd	8F	8BB-
=296	=296	=296	=296
8aa	4ee-	4.F	8C
8ccc	.	.	8C
8eee-	8r	.	8FF
8ccc	8a	8F	8FF
=297	=297	=297	=297
8bb-	8b-	8f	4DD
8ddd	8dd	8b-	.
8gg	8g	8e-	4EE-
8bb-	8b-	8g	.
=298	=298	=298	=298
4b-	4d	4f	2FF
4cc	4A	4e-	.
=299	=299	=299	=299
4ee-	4a	4c	[4BB-
8dd	8b-	8B-	8BB-]
8bb-	8r	8B-	8r
=300	=300	=300	=300
8ccc	4.r	8A	4.r
8ccc	.	8c	.
8ff	.	8e-	.
8ff	8f	8c	8AA
=301	=301	=301	=301
4dd	8b-	8d	8BB-
.	8a	8f	8FF
8r	8g	8r	8BB-
8bb-	8f	8B-	8D
=302	=302	=302	=302
8ccc	4.f	8A	4E-
8ccc	.	8c	.
8ff	.	8e-	8r
8ff	8f	8c	8AA
=303	=303	=303	=303
4dd	8b-	8d	8BB-
.	8a	8f	8FF
8r	8g	8r	8BB-
8bb-	8f	8B-	8D
=304	=304	=304	=304
8ccc	[2f	8A	4.E-
8ccc	.	8c	.
8ff	.	4e-	.
8ff	.	.	8AA
=305	=305	=305	=305
8ddd	8f]	4.d	4.BB-
8ddd	8f#	.	.
8gg	[4g	.	.
8gg	.	8f	8BB
=306	=306	=306	=306
8eee-	8g]	4.e-	4.C
8eee-	8g	.	.
8aa	4a	.	.
8aa	.	8e-	8C
=307	=307	=307	=307
2fff	16b-	16f	8D
.	16b-	16f	.
.	16b-	16f	8D
.	16b-	16f	.
.	16b-	16f	8D
.	16b-	16f	.
.	16b-	16f	8D
.	16b-	16f	.
=308	=308	=308	=308
2d	16B-	16F	8AA-
.	16B-	16F	.
.	16B-	16F	8AA-
.	16B-	16F	.
.	16B-	16F	8AA-
.	16B-	16F	.
.	16B-	16F	8AA-
.	16B-	16F	.
=309	=309	=309	=309
2e-	16B-	16G	8GG
.	16B-	16G	.
.	16B-	16G	8GG
.	16B-	16G	.
.	16B-	16G	8GG
.	16B-	16G	.
.	16B-	16G	8GG
.	16B-	16G	.
=310	=310	=310	=310
2gg	16dd-	16b-	8EE
.	16dd-	16b-	.
.	16dd-	16b-	8EE
.	16dd-	16b-	.
.	16dd-	16b-	8EE
.	16dd-	16b-	.
.	16dd-	16b-	8EE
.	16dd-	16b-	.
=311	=311	=311	=311
2ff	16dd	16b-	8FF
.	16dd	16b-	.
.	16dd	16b-	8FF
.	16dd	16b-	.
.	16dd	16b-	8FF
.	16dd	16b-	.
.	16dd	16b-	8FF
.	16dd	16b-	.
=312	=312	=312	=312
2ee-	16cc	16a	8FF#
.	16cc	16a	.
.	16cc	16a	8FF#
.	16cc	16a	.
.	16cc	16a	8FF#
.	16cc	16a	.
.	16cc	16a	8FF#
.	16cc	16a	.
=313	=313	=313	=313
4dd	16b-	4b-	8GG
.	16a	.	.
.	16b-	.	8G
.	16a	.	.
8r	8b-	4r	8G
8dd	8r	.	8G
=314	=314	=314	=314
8bb-	16dd	16b-	8F
.	16cc#	16a	.
8aa-	16dd	16b-	8F
.	16cc#	16a	.
8r	8dd	8b-	8F
8aa-	8r	8r	8F
=315	=315	=315	=315
8ff#	16ee-	8b-	8E-
.	16dd	.	.
8gg	16ee-	8b-	8E-
.	16dd	.	.
8r	8ee-	8b-	8E-
8gg	8r	8r	8E-
=316	=316	=316	=316
8aa	16cc	8g	8E
.	16b	.	.
8bb-	16cc	8g	8E
.	16b	.	.
8r	8cc	8g	8E
8bb-	8r	8r	8E
=317	=317	=317	=317
8bb-	16dd	16f	8F
.	16cc#	16a	.
8ff	16dd	16b-	8F
.	16cc#	16a	.
8r	8dd	8b-	8F
8dd	8r	8r	8F
=318	=318	=318	=318
8ff	16a	16c	8F
.	16b-	16d	.
8ee-	16a	16c	8F
.	16b-	16d	.
8r	8a	8c	8F
8cc	8a	8e-	8F
=319	=319	=319	=319
4b-	4b-	4d	4BB-
4r	4r	4r	4r
=320	=320	=320	=320
4b-	4f	4d	2r
4cc	4g	4e-	.
=321	=321	=321	=321
8a	4e-	4c	4F
16g	.	.	.
16f	.	.	.
8b-	4d	4B-	4G
8b-	.	.	.
=322	=322	=322	=322
8cc	8b-	8g	8E-
8cc	8b-	8g	8E-
8dd	8b-	8a-	8F
8dd	8b-	8a-	8F
=323	=323	=323	=323
4ff	4b-	4g	4G
8ee-	4r	4r	4r
8r	.	.	.
=324	=324	=324	=324
4ee-	4r	4r	4r
4gg	4cc	4a	4e-
=325	=325	=325	=325
8ff	4dd	4b-	4d
16gg	.	.	.
16aa	.	.	.
8bb-	8r	8r	8r
8b-	8b-	8d	8G
=326	=326	=326	=326
8cc	8b-	8g	8E-
8cc	8b-	8g	8E-
8ff	8a	8f	8F
8ff	8a	8e-	8F
=327	=327	=327	=327
4b-	4b-	4d	4B-
8r	8r	4r	4r
8ddd	8bb-	.	.
=328	=328	=328	=328
8fff	8ddd	2r	2r
8ddd	8bb-	.	.
8fff	8ddd	.	.
8ddd	8bb-	.	.
=329	=329	=329	=329
4fff	4ddd	8r	8r
.	.	8c#	8A
8r	8r	[4d	[4B-
8bb-	8dd	.	.
=330	=330	=330	=330
8ddd	8ff	2d_	2B-_
8bb-	8dd	.	.
8ddd	8ff	.	.
8bb-	8dd	.	.
=331	=331	=331	=331
4ddd	4ff	8d]	8B-]
.	.	8C#	8AA
8r	8r	[4D	[4BB-
8dd	8b-	.	.
=332	=332	=332	=332
8ff	8dd	2D_	2BB-_
8dd	8b-	.	.
8ff	8dd	.	.
8dd	8b-	.	.
=333	=333	=333	=333
4ff	4dd	4D]	4BB-]
8r	8r	8r	8r
8aa	8ee- 8f	8cc	8FF
=334	=334	=334	=334
8bb-	8dd 8f	8b-	8BB-
8aa	8ee- 8f	8cc	8FF
8bb-	8dd 8f	8b-	8BB-
8aa	8ee- 8f	8cc	8FF
=335	=335	=335	=335
4bb-	4dd 4f	4b-	4BB-
4r	4r	4r	4r
==	==	==	==
*-	*-	*-	*-
!!!RWG1: This file contains only pitch and duration data.
!!!RWG2: Transposing instruments are not transposed.
!!!RWG3: Spines may have incompatible meters.
!!!RWG4: Durations of rests and tied notes may be interpreted.
!!!RWG: Key is interpreted using the Humdrum key tool.
!!!OPT: Hunt
!!!AFT: stage1
!!!END: 1997/04/15
!!format changes:
!!content changes:
!!public access: complete
!!!KEY: 1715507433
!!!EMD: Converted from MuseData to Humdrum Dec 16, 2000, by Andreas Kornstaedt using muse2kern.
